X: 33225
T: Pucha's Bush
R: jig
M: 6/8
K: Dmajor
|:ABA F2E|DEF FED|FAd faf|gfe dBA|
ABA F2E|DEF FED|Bcd B2A|AFE E3:|
dfa afd|dfa afd|def fed|Bcd BAF|
[1 dfa afd|def fed|Bcd B2A|AFF E3:|
[2 ABA F2E|DEF FED|Bcd B2A|AFE E3||

